X:1
T:Come West Along The Road
R:reel
M:4/4
L:1/8
K:A
af|:~e2cA eAcA|~A2ce feaf|~e2cA eAcA|1 Bcde feaf:|2 Bcde fece|]
|:~a2ae faea|faea fece|1 ~a2ae faec|Bcde fece:|2 ~a2ae feaf|efab c'baf|]